imgs/vr-headset.svg

<svg width="58" height="60" viewBox="0 0 58 60" fill="none" xmlns="http://www.w3.org/2000/svg">
<path d="M49 13H9C7.93913 13 6.92172 13.4214 6.17157 14.1716C5.42143 14.9217 5 15.9391 5 17V32C5 33.0609 5.42143 34.0783 6.17157 34.8284C6.92172 35.5786 7.93913 36 9 36H22C22.168 36 22.3333 35.9577 22.4807 35.8769C22.628 35.7962 22.7526 35.6796 22.843 35.538L25.943 30.67C26.2724 30.1598 26.7244 29.7403 27.2577 29.4498C27.7911 29.1593 28.3887 29.0071 28.996 29.0071C29.6033 29.0071 30.2009 29.1593 30.7343 29.4498C31.2676 29.7403 31.7196 30.1598 32.049 30.67L35.149 35.538C35.2401 35.6808 35.366 35.7981 35.5149 35.8789C35.6637 35.9597 35.8306 36.0014 36 36H49C50.0609 36 51.0783 35.5786 51.8284 34.8284C52.5786 34.0783 53 33.0609 53 32V17C53 15.9391 52.5786 14.9217 51.8284 14.1716C51.0783 13.4214 50.0609 13 49 13ZM45 22H13C12.7348 22 12.4804 21.8946 12.2929 21.7071C12.1054 21.5196 12 21.2652 12 21C12 20.7348 12.1054 20.4804 12.2929 20.2929C12.4804 20.1054 12.7348 20 13 20H45C45.2652 20 45.5196 20.1054 45.7071 20.2929C45.8946 20.4804 46 20.7348 46 21C46 21.2652 45.8946 21.5196 45.7071 21.7071C45.5196 21.8946 45.2652 22 45 22Z" fill="#776CF0"/>
<path d="M46.8273 10.9999C45.1681 7.69373 42.6221 4.91408 39.474 2.97164C36.3258 1.02919 32.6995 0.000488281 29.0003 0.000488281C25.3012 0.000488281 21.6748 1.02919 18.5267 2.97164C15.3785 4.91408 12.8326 7.69373 11.1733 10.9999H46.8273Z" fill="#776CF0"/>
<path d="M56.2682 58.0357L44.1262 54.6627C42.6537 54.2505 41.3562 53.3687 40.4309 52.1514C39.5056 50.934 39.0032 49.4478 39.0002 47.9187V46.7188C36.0858 48.8192 32.5924 49.9654 29.0002 49.9997C25.4083 49.9662 21.9149 48.8211 19.0002 46.7217V47.9217C18.9971 49.4508 18.4947 50.937 17.5694 52.1544C16.6441 53.3717 15.3466 54.2535 13.8742 54.6657L1.73216 58.0357C1.49871 58.1001 1.29657 58.247 1.16325 58.4492C1.02993 58.6514 0.974491 58.895 1.00723 59.135C1.03997 59.3749 1.15866 59.5948 1.34127 59.7538C1.52388 59.9129 1.758 60.0003 2.00016 59.9997H56.0002C56.2423 60.0003 56.4764 59.9129 56.659 59.7538C56.8416 59.5948 56.9603 59.3749 56.9931 59.135C57.0258 58.895 56.9704 58.6514 56.8371 58.4492C56.7037 58.247 56.5016 58.1001 56.2682 58.0357Z" fill="#776CF0"/>
<path d="M36 37.9999C35.4956 38.0011 34.9992 37.8746 34.5569 37.632C34.1147 37.3895 33.7411 37.0389 33.471 36.6129L30.371 31.7459C30.2245 31.5161 30.0225 31.3269 29.7836 31.1959C29.5446 31.0648 29.2765 30.9961 29.004 30.9961C28.7315 30.9961 28.4634 31.0648 28.2244 31.1959C27.9855 31.3269 27.7835 31.5161 27.637 31.7459L24.537 36.6129C24.2662 37.04 23.8913 37.3914 23.4476 37.634C23.0038 37.8766 22.5057 38.0025 22 37.9999H13.729C17.5 44.3099 23.059 47.9999 29 47.9999C34.941 47.9999 40.5 44.3099 44.271 37.9999H36Z" fill="#776CF0"/>
</svg>

<svg width="58" height="60" fill="none" xmlns="http://www.w3.org/2000/svg"><path d="M49 13H9a4 4 0 00-4 4v15a4 4 0 004 4h13a1 1 0 00.843-.462l3.1-4.868a3.634 3.634 0 016.106 0l3.1 4.868A1 1 0 0036 36h13a4 4 0 004-4V17a4 4 0 00-4-4zm-4 9H13a1 1 0 010-2h32a1 1 0 010 2zm1.827-11a19.946 19.946 0 00-35.654 0h35.654zm9.441 47.036l-12.142-3.373A7.018 7.018 0 0139 47.919v-1.2a17.387 17.387 0 01-10 3.28 17.387 17.387 0 01-10-3.277v1.2a7.018 7.018 0 01-5.126 6.744l-12.142 3.37A1 1 0 002 60h54a1 1 0 00.268-1.964z" fill="#776CF0"/><path d="M36 38a2.986 2.986 0 01-2.529-1.387l-3.1-4.867a1.621 1.621 0 00-2.734 0l-3.1 4.867A2.986 2.986 0 0122 38h-8.271C17.5 44.31 23.059 48 29 48c5.941 0 11.5-3.69 15.271-10H36z" fill="#776CF0"/></svg>
